Adwaita++-Dark/actions/16/view-grid.svg

<svg height="16" width="16" xmlns="http://www.w3.org/2000/svg">
  <g fill="#e6ddff">
    <path d="m3.25 3h3.5c.1385 0 .25.1115.25.25v3.5c0 .1385-.1115.25-.25.25h-3.5c-.1385 0-.25-.1115-.25-.25v-3.5c0-.1385.1115-.25.25-.25z"/>
    <path d="m9.25 3h3.5c.139 0 .25.1115.25.25v3.5c0 .1385-.111.25-.25.25h-3.5c-.1385 0-.25-.1115-.25-.25v-3.5c0-.1385.1115-.25.25-.25z"/>
    <path d="m3.25 9h3.5c.1385 0 .25.1115.25.25v3.5c0 .139-.1115.25-.25.25h-3.5c-.1385 0-.25-.111-.25-.25v-3.5c0-.1385.1115-.25.25-.25z"/>
    <path d="m9.25 9h3.5c.139 0 .25.1115.25.25v3.5c0 .139-.111.25-.25.25h-3.5c-.1385 0-.25-.111-.25-.25v-3.5c0-.1385.1115-.25.25-.25z"/>
  </g>
</svg>

<svg xmlns="http://www.w3.org/2000/svg" width="16" height="16" version="1.1">
 <path style="fill:#E6DDFF" d="M 3.25,3 H 6.75 C 6.8885,3 7,3.1115 7,3.25 V 6.75 C 7,6.8885 6.8885,7 6.75,7 H 3.25 C 3.1115,7 3,6.8885 3,6.75 V 3.25 C 3,3.1115 3.1115,3 3.25,3 Z"/>
 <path style="fill:#E6DDFF" d="M 9.25,3 H 12.75 C 12.889,3 13,3.1115 13,3.25 V 6.75 C 13,6.8885 12.889,7 12.75,7 H 9.25 C 9.1115,7 9,6.8885 9,6.75 V 3.25 C 9,3.1115 9.1115,3 9.25,3 Z"/>
 <path style="fill:#E6DDFF" d="M 3.25,9 H 6.75 C 6.8885,9 7,9.1115 7,9.25 V 12.75 C 7,12.889 6.8885,13 6.75,13 H 3.25 C 3.1115,13 3,12.889 3,12.75 V 9.25 C 3,9.1115 3.1115,9 3.25,9 Z"/>
 <path style="fill:#E6DDFF" d="M 9.25,9 H 12.75 C 12.889,9 13,9.1115 13,9.25 V 12.75 C 13,12.889 12.889,13 12.75,13 H 9.25 C 9.1115,13 9,12.889 9,12.75 V 9.25 C 9,9.1115 9.1115,9 9.25,9 Z"/>
</svg>
